X:312
T:Leylim Ley
Z:Jack Campin, http://www.campin.me.uk/
F:Jack Campin's Nine-Note Tunebook
% last edit 03-02-2013
C:Zulfu Livaneli
B:Zulfu Livaneli, Gecmisten Gelecege Turkuler
M:5/4
L:1/8
Q:1/4=84
K:EPhr
       BB  BB BA AG  AB|[M:4/4](A4- AG)    AB|A4 z4|
[M:5/4]B<B BB BA AG  AB|[M:4/4](A4- AG)    AB|A4 z4|
[M:5/4]BB  BB BA AG  AB|[M:4/4](A4- AG)    AB|A4 z4|
[M:5/4]G<G GG GG GG ^FG|[M:4/4](G4 =F/E/D) EF|E4 z2
EF|F4- F/E/D F(F/E/)|E4 z2\
EF|F4- F/E/D F(F/E/)|E8 |]

